packages/components/src/components/icon/wallet/ic-wallet-jeton-dark.svg

<svg width="40" height="25" viewBox="0 0 40 25" fill="none" xmlns="http://www.w3.org/2000/svg">
<path d="M10.7756 8.125V16.875H10.4589V8.125H10.7756ZM15.0935 14.1096C15.3609 14.1096 15.5776 13.9039 15.5776 13.6501V9.02659H17.5082V13.6501C17.5396 14.4887 17.086 15.2767 16.3255 15.7048C15.9846 15.8968 15.6064 16.0026 15.2243 16.0225L15.1361 16.0255H15.0478C14.6359 16.0184 14.2255 15.9115 13.8584 15.7048C13.0979 15.2767 12.6443 14.4887 12.6757 13.6501H14.6093C14.6093 13.9039 14.8261 14.1096 15.0935 14.1096ZM30.9581 11.0147C31.2687 11.1405 31.5501 11.3231 31.7863 11.5522L31.7924 11.5551C32.033 11.7886 32.2215 12.0657 32.3466 12.37C32.6103 13.03 32.6103 13.7587 32.3466 14.4188C32.0977 15.0326 31.5965 15.5239 30.9581 15.7798C30.6697 15.8905 30.3667 15.9537 30.0617 15.9695L29.96 15.973H29.8582C29.5189 15.9672 29.1805 15.9028 28.8601 15.7798C28.5457 15.6546 28.261 15.4708 28.0227 15.2394C27.7858 15.002 27.5997 14.7233 27.4746 14.4188C27.3407 14.0918 27.2735 13.7437 27.2766 13.3929C27.2729 13.043 27.3401 12.6958 27.4746 12.37C27.5998 12.0671 27.786 11.7904 28.0227 11.5551C28.261 11.3237 28.5457 11.1399 28.8601 11.0147C29.5322 10.7528 30.286 10.7528 30.9581 11.0147ZM20.7176 10.8066C21.075 10.8015 21.43 10.8634 21.7621 10.9887C22.0652 11.1052 22.3368 11.285 22.5568 11.5146V11.5117C22.776 11.7441 22.9428 12.0164 23.0471 12.3122C23.1611 12.6442 23.2166 12.9917 23.2115 13.3409V13.5836C23.2088 13.6459 23.1954 13.7074 23.1719 13.7657L23.1171 13.8668H19.7676C19.8105 14.0666 19.9168 14.249 20.0721 14.3899C20.1706 14.4795 20.2864 14.5501 20.4131 14.5979C20.5448 14.648 20.6854 14.6735 20.8273 14.6731L20.8983 14.6755L20.969 14.6732C21.1567 14.6607 21.338 14.598 21.4911 14.491L21.5672 14.4274L22.9862 14.8031L22.8339 15.0169C22.6985 15.2084 22.5297 15.3765 22.3346 15.514C22.1332 15.6605 21.908 15.7747 21.6677 15.852C21.4213 15.9246 21.1673 15.9641 20.9129 15.9705L20.8038 15.9713C20.4767 15.9675 20.1506 15.9093 19.8407 15.7971C19.5288 15.6826 19.2456 15.5074 19.0094 15.2828C18.7657 15.0483 18.5732 14.7703 18.443 14.465C18.2941 14.1174 18.2206 13.7449 18.2268 13.3698C18.2231 13.0128 18.2924 12.6585 18.4308 12.3266C18.5577 12.028 18.7438 11.7553 18.9789 11.5233C19.2055 11.301 19.4768 11.1241 19.7767 11.0031C20.0724 10.8759 20.393 10.8089 20.7176 10.8066ZM8.82376 14.0055C8.36551 14.9096 7.5171 15.5811 6.49758 15.8465C5.47807 16.1119 4.38739 15.9453 3.50714 15.3897L8.82376 14.0055ZM25.7237 9.57563V10.954H26.7011V12.2775H25.7237V14.1847C25.7141 14.2881 25.7456 14.3912 25.812 14.4737C25.8872 14.5264 25.9772 14.5558 26.07 14.5584L26.1165 14.5575C26.1657 14.562 26.2152 14.5643 26.2646 14.5645L26.3388 14.5632L26.4697 14.5459L26.7103 14.4881V15.7191L26.5885 15.7654C26.5611 15.7654 26.5093 15.7914 26.354 15.8318C26.2509 15.8539 26.1464 15.8687 26.0412 15.8761L25.9358 15.881C25.9007 15.8818 25.8655 15.8818 25.8302 15.8809C25.3992 15.8995 24.9782 15.7539 24.661 15.4764C24.3612 15.1767 24.2039 14.7736 24.2255 14.361V12.2775H23.647V10.954H24.2255V9.57563H25.7237ZM35.916 10.8267L36.0073 10.8286C36.2506 10.8387 36.4928 10.8891 36.7223 10.98C36.9584 11.0784 37.167 11.2278 37.3313 11.4164C37.4878 11.6037 37.6056 11.8175 37.6785 12.0463L37.6967 12.0492C37.7747 12.2927 37.8138 12.546 37.8125 12.8005V15.8347H36.2899V12.9826C36.2975 12.7689 36.2335 12.5585 36.1072 12.3815C35.9556 12.2466 35.7647 12.1757 35.5718 12.168L35.5191 12.1675L35.4666 12.1701C35.2742 12.1854 35.0865 12.2639 34.941 12.4046C34.7979 12.5903 34.725 12.8163 34.7339 13.0462V15.8318H33.2114V10.954H34.6882V11.2228C34.7907 11.1395 34.9044 11.0695 35.0262 11.0147C35.3078 10.8894 35.6118 10.8266 35.916 10.8267ZM29.9075 12.1619C29.7608 12.1617 29.6152 12.1872 29.4782 12.237C29.3476 12.2861 29.2301 12.3621 29.1341 12.4595C29.0247 12.5722 28.9389 12.7036 28.8814 12.8468C28.8129 13.0214 28.7799 13.2067 28.7839 13.3929C28.7805 13.581 28.8135 13.7681 28.8814 13.9448C28.9394 14.0887 29.0251 14.2209 29.1341 14.335C29.2317 14.4333 29.35 14.511 29.4812 14.5632C29.6175 14.6152 29.7618 14.6412 29.906 14.6412L29.9781 14.6391C30.0981 14.6318 30.2172 14.6066 30.3308 14.5632C30.4652 14.5105 30.5865 14.4318 30.6871 14.3321C30.7943 14.22 30.8762 14.0882 30.9276 13.9448L30.9337 13.9477C30.999 13.7694 31.031 13.5817 31.0281 13.3929C31.0316 13.206 30.9996 13.02 30.9337 12.8439C30.8801 12.7019 30.7961 12.5721 30.6871 12.4624C30.5876 12.3642 30.4672 12.2874 30.3338 12.237C30.1979 12.1872 30.0533 12.1617 29.9075 12.1619ZM8.57407 10.5552C8.97683 11.1314 9.18891 11.8086 9.18307 12.5V12.6734L2.48401 14.4159C2.08603 13.8484 1.87411 13.1817 1.875 12.5V12.2919L8.57407 10.5552ZM20.7207 12.081C20.5869 12.0795 20.4543 12.1041 20.3309 12.1532C20.2169 12.1967 20.1134 12.2616 20.0264 12.344C19.9451 12.4294 19.8793 12.5271 19.8315 12.6329C19.8231 12.6596 19.816 12.6866 19.8102 12.7138L19.8163 12.7109H21.6677C21.6577 12.6687 21.6445 12.6271 21.6281 12.5867C21.5885 12.4919 21.5295 12.4054 21.4545 12.3324C21.3672 12.2526 21.2636 12.1906 21.15 12.1503C21.0359 12.1091 20.9156 12.0858 20.7939 12.0814L20.7207 12.081ZM4.56479 9.1577C5.56665 8.89684 6.63816 9.05303 7.51135 9.58719L2.26172 10.954C2.72542 10.0718 3.56292 9.41855 4.56479 9.1577Z" fill="#FF671F"/>
</svg>

<svg width="40" height="25" fill="none" xmlns="http://www.w3.org/2000/svg"><path d="M10.776 8.125v8.75h-.317v-8.75h.317zm4.318 5.985a.472.472 0 00.484-.46V9.027h1.93v4.623c.032.839-.422 1.627-1.182 2.055a2.51 2.51 0 01-1.102.318l-.088.003h-.088a2.513 2.513 0 01-1.19-.321c-.76-.428-1.214-1.216-1.182-2.055h1.933c0 .254.217.46.485.46zm15.864-3.095c.31.125.592.308.828.537l.006.003c.241.234.43.51.555.815.263.66.263 1.389 0 2.049a2.484 2.484 0 01-1.389 1.36c-.288.111-.591.175-.896.19l-.102.004h-.102a2.926 2.926 0 01-.998-.193 2.562 2.562 0 01-.837-.54 2.517 2.517 0 01-.548-.821 2.643 2.643 0 01-.198-1.026c-.004-.35.063-.697.198-1.023.125-.303.311-.58.548-.815.238-.231.523-.415.837-.54a2.9 2.9 0 012.098 0zm-10.24-.208c.357-.005.712.056 1.044.182.303.116.575.296.795.526v-.003c.219.232.386.504.49.8.114.332.17.68.165 1.029v.243a.55.55 0 01-.04.182l-.055.1h-3.35c.044.2.15.383.305.524.099.09.214.16.341.208.132.05.272.075.414.075l.071.002.071-.002c.188-.012.369-.075.522-.182l.076-.064 1.42.376-.153.214c-.136.191-.304.36-.5.497-.2.147-.426.26-.666.338-.247.073-.5.112-.755.118l-.11.001a2.93 2.93 0 01-.962-.174 2.412 2.412 0 01-1.398-1.332 2.667 2.667 0 01-.216-1.095 2.638 2.638 0 01.204-1.043 2.444 2.444 0 011.346-1.323c.295-.128.616-.195.94-.197zM8.824 14.005c-.458.905-1.307 1.576-2.326 1.841a3.82 3.82 0 01-2.99-.456l5.316-1.385zm16.9-4.43v1.379h.977v1.323h-.977v1.908a.401.401 0 00.088.289.473.473 0 00.258.084h.046c.05.004.1.006.149.007l.074-.002.13-.017.241-.058v1.231l-.122.046c-.027 0-.079.026-.234.067a2.243 2.243 0 01-.313.044l-.105.005h-.106a1.669 1.669 0 01-1.169-.405c-.3-.3-.457-.702-.436-1.115v-2.084h-.578v-1.323h.579V9.576h1.498zm10.192 1.252l.091.002c.244.01.486.06.715.151.236.098.445.248.61.436.156.188.274.402.346.63l.019.003c.078.244.117.497.115.752v3.034H36.29v-2.852a.974.974 0 00-.183-.601.855.855 0 00-.535-.214h-.053l-.052.002a.851.851 0 00-.526.235.987.987 0 00-.207.641v2.786H33.21v-4.878h1.477v.269c.103-.084.216-.154.338-.208.282-.126.586-.188.89-.188zm-6.008 1.335c-.147 0-.293.025-.43.075a.954.954 0 00-.344.223c-.11.112-.195.244-.253.387-.068.174-.101.36-.097.546-.003.188.03.375.097.552.058.144.144.276.253.39.098.098.216.176.347.228.136.052.28.078.425.078l.072-.002c.12-.007.24-.032.353-.076a1.05 1.05 0 00.356-.23c.107-.113.19-.245.24-.388l.007.003c.065-.179.097-.366.094-.555a1.486 1.486 0 00-.094-.55 1.086 1.086 0 00-.247-.38c-.1-.099-.22-.176-.353-.226a1.235 1.235 0 00-.427-.075zM8.573 10.555c.403.576.615 1.254.61 1.945v.173l-6.7 1.743a3.326 3.326 0 01-.609-1.916v-.208l6.7-1.737zm12.147 1.526a1.024 1.024 0 00-.695.263 1.04 1.04 0 00-.195.289.884.884 0 00-.02.08l.005-.002h1.852a.769.769 0 00-.213-.379.894.894 0 00-.305-.182 1.174 1.174 0 00-.356-.069h-.073zM4.565 9.158a3.821 3.821 0 012.946.43l-5.25 1.366c.464-.882 1.302-1.535 2.304-1.796z" fill="#FF671F"/></svg>
